X:127
T: BLAUER BLAUER FINGERHUT
N: K2187
O: Europa, Mitteleuropa, Deutschland, Oberdiebach am Rhein
R: Kinder - Lied, Reigen, Tanz - Spiel, Brautwerbung
M: 2/4
L: 1/8
K: Eb
 | BBcc | BBG2 |
BBcc | BBG2 |
eGGG | G2F2 |
BBcc | BBG2 |
BBcc | BBG2 |
BBeB | B2G2 |
BBeB | B2G2 |
eGcB | BBG2 |
eGGG | G2F2 |
BBcc | BBG2 |
eGGG | G2F2 |
BBcc | BBG2 |
eGcB | G2E2

@@@ Tune index: 7464
